X: 34
T:Rose in the Heather, The
M:6/8
L:1/8
Q:120
S:THSP
R:jig
Z:
K:D
"D"~F3 EFE|DFA BAF|"G"ABd ede|"A"fdB AFE|
"D"~F3 EFE|DFA BAF|"G"AdB AFE|1 "A"FDD "D"D2A:|2 "A"FDD "D"D2e||:
"D"fdB ABd|faa afd|"G"~g3 fed|"A"Bee ede|
"D"fdB ABd|faa afa|"G"baf "D"gfe|1 "A"fdc "D"d2e:|2 "A"fdB AFE|]
